fs/hand_draw_24_filled.svg

<svg viewBox="0 0 24 24" fill="none" xmlns="http://www.w3.org/2000/svg" height="1em" width="1em">
  <path d="M19.4046 2.59778C19.7206 2.85061 20 3.23393 20 3.74999C20 4.53438 19.5008 5.04554 18.9323 5.34361C18.3872 5.6294 17.6737 5.78613 16.9222 5.88112C15.4712 6.06452 13.5774 6.04889 11.7372 6.03371L11.494 6.03171C9.53841 6.01598 7.66508 6.01058 6.28157 6.21514C5.58436 6.31822 5.09174 6.46457 4.79206 6.63824C4.52367 6.79377 4.50026 6.9082 4.5 6.99901L4.50096 7.00092C4.50573 7.01 4.52386 7.03932 4.5756 7.08438C4.68677 7.1812 4.89038 7.29686 5.21185 7.41092C5.85037 7.63747 6.74581 7.78695 7.69765 7.87905C7.79846 7.88881 7.89934 7.89787 8 7.90628V9.41121C7.85174 9.39953 7.70252 9.38653 7.55317 9.37208C6.5673 9.27668 5.52504 9.11365 4.71028 8.82457C4.30511 8.68082 3.90319 8.48788 3.59048 8.21555C3.26484 7.93196 3 7.52579 3 7.00055C3 6.21661 3.46222 5.67521 4.03997 5.34041C4.58795 5.02286 5.30627 4.84304 6.06218 4.73127C7.58492 4.50613 9.58659 4.51632 11.506 4.53176L11.688 4.53324C13.5815 4.54866 15.386 4.56336 16.7341 4.39296C17.4357 4.30428 17.9331 4.17381 18.2357 4.01515C18.4299 3.91334 18.4818 3.83854 18.4954 3.79293C18.4884 3.78642 18.4793 3.77846 18.4675 3.76905C18.37 3.69101 18.1811 3.59148 17.8702 3.49253C17.2551 3.29675 16.3792 3.16904 15.4094 3.09209C13.8153 2.9656 12.1224 2.9857 11.2123 2.9965C11.0208 2.99877 10.864 3.00064 10.75 3.00064C10.3358 3.00063 10 2.66484 10 2.25063C10 1.83641 10.3358 1.50063 10.75 1.50064C10.8486 1.50064 10.9907 1.4989 11.1683 1.49673C12.0615 1.4858 13.8532 1.46389 15.5281 1.59679C16.5271 1.67606 17.5418 1.81387 18.3251 2.06318C18.7135 2.18679 19.1008 2.3547 19.4046 2.59778ZM13.995 9.32949C13.9282 7.96966 13.098 7.00055 11.7494 7.00055C10.3421 7.00055 9.49939 8.05576 9.49939 9.50903V13.6768L9.24018 13.5973C8.04902 13.2495 7.11582 13.2297 6.41398 13.5806C5.46054 14.0573 4.97044 14.9127 4.99502 16.0213C5.0012 16.2998 5.16131 16.552 5.41079 16.6761L7.7737 17.8516L7.8711 17.9039L7.96499 17.9623L9.84872 19.2182L10.0421 19.3569C10.4812 19.6954 10.8337 20.1351 11.0685 20.6399L11.0976 20.7024L11.1769 20.8572C11.629 21.6611 12.5326 22.1133 13.4572 21.9806L15.8755 21.6336L16.0407 21.6036C16.8567 21.4238 17.5116 20.8034 17.7296 19.9872L18.7778 16.0641L18.8204 15.8846C19.1692 14.2087 18.1511 12.5326 16.4768 12.0853C16.3915 12.0625 16.3054 12.0432 16.2186 12.0275L13.9994 11.6245V9.50903L13.995 9.32949Z" fill="#212121"/>
</svg>

<svg viewBox="0 0 24 24" fill="none" xmlns="http://www.w3.org/2000/svg" height="1em" width="1em">
  <path d="M19.405 2.598c.316.253.595.636.595 1.152 0 .784-.5 1.296-1.068 1.594-.545.285-1.258.442-2.01.537-1.45.184-3.345.168-5.185.153l-.243-.002c-1.956-.016-3.829-.021-5.212.183-.698.103-1.19.25-1.49.423-.268.156-.292.27-.292.361l.001.002a.332.332 0 0 0 .075.083c.11.097.314.213.636.327.638.226 1.534.376 2.486.468.1.01.201.019.302.027v1.505a25.17 25.17 0 0 1-.447-.039c-.986-.095-2.028-.258-2.843-.547-.405-.144-.807-.337-1.12-.61-.325-.283-.59-.69-.59-1.214 0-.784.462-1.326 1.04-1.66.548-.318 1.266-.498 2.022-.61 1.523-.225 3.525-.215 5.444-.2l.182.002c1.893.016 3.698.03 5.046-.14.702-.089 1.2-.22 1.502-.378.194-.102.246-.176.26-.222a.484.484 0 0 0-.028-.024c-.098-.078-.287-.178-.598-.276-.615-.196-1.49-.324-2.46-.4-1.595-.127-3.288-.107-4.198-.096L10.75 3a.75.75 0 0 1 0-1.5l.418-.004c.894-.011 2.685-.033 4.36.1 1 .08 2.014.217 2.797.466.389.124.776.292 1.08.535Zm-5.41 6.731c-.067-1.36-.897-2.328-2.246-2.328C10.342 7 9.5 8.056 9.5 9.509v4.168l-.259-.08c-1.191-.348-2.124-.367-2.826-.016-.953.476-1.444 1.332-1.419 2.44a.75.75 0 0 0 .416.655l2.363 1.176.097.052.094.058 1.884 1.256.193.139c.44.338.792.778 1.027 1.283l.029.062.079.155a2.25 2.25 0 0 0 2.28 1.124l2.418-.347.166-.03a2.25 2.25 0 0 0 1.689-1.617l1.048-3.923.042-.18a3.25 3.25 0 0 0-2.601-3.857L14 11.625V9.508l-.004-.18Z" fill="#212121"/>
</svg>
